Arcticons/scalable/apps/cpustats.svg

<svg viewBox="0 0 48 48" xmlns="http://www.w3.org/2000/svg">
 <defs>
  <style>.a{fill:none;stroke:#fff;stroke-linecap:round;stroke-linejoin:round;}</style>
 </defs>
 <path class="a" d="m5.69 31.17h8.56v7.17h-8.56a1.19 1.19 0 0 1-1.19-1.2v-4.78a1.19 1.19 0 0 1 1.19-1.19z"/>
 <rect class="a" x="14.25" y="31.17" width="9.75" height="7.17"/>
 <rect class="a" x="24" y="31.17" width="9.75" height="7.17"/>
 <path class="a" d="m33.75 31.17h9.75v6a1.19 1.19 0 0 1-1.19 1.19h-8.56v-7.19z"/>
 <path class="a" d="m15.44 24h8.56v7.17h-9.75v-6a1.19 1.19 0 0 1 1.19-1.17z"/>
 <rect class="a" x="24" y="24" width="9.75" height="7.17"/>
 <rect class="a" x="33.75" y="24" width="9.75" height="7.17"/>
 <path class="a" d="m25.19 16.83h8.56v7.17h-9.75v-6a1.19 1.19 0 0 1 1.19-1.17z"/>
 <rect class="a" x="33.75" y="16.83" width="9.75" height="7.17"/>
 <path class="a" d="m34.94 9.67h7.36a1.19 1.19 0 0 1 1.19 1.19v6h-9.74v-6a1.19 1.19 0 0 1 1.19-1.19z"/>
</svg>

<svg xmlns="http://www.w3.org/2000/svg" viewBox="0 0 48 48"><defs><style>.a{fill:none;stroke:#fff;stroke-linecap:round;stroke-linejoin:round;}</style></defs><path class="a" d="M5.69,31.17h8.56a0,0,0,0,1,0,0v7.17a0,0,0,0,1,0,0H5.69A1.19,1.19,0,0,1,4.5,37.14V32.36A1.19,1.19,0,0,1,5.69,31.17Z"/><rect class="a" x="14.25" y="31.17" width="9.75" height="7.17"/><rect class="a" x="24" y="31.17" width="9.75" height="7.17"/><path class="a" d="M33.75,31.17H43.5a0,0,0,0,1,0,0v6a1.19,1.19,0,0,1-1.19,1.19H33.75a0,0,0,0,1,0,0V31.17A0,0,0,0,1,33.75,31.17Z"/><path class="a" d="M15.44,24H24a0,0,0,0,1,0,0v7.17a0,0,0,0,1,0,0H14.25a0,0,0,0,1,0,0v-6A1.19,1.19,0,0,1,15.44,24Z"/><rect class="a" x="24" y="24" width="9.75" height="7.17"/><rect class="a" x="33.75" y="24" width="9.75" height="7.17"/><path class="a" d="M25.19,16.83h8.56a0,0,0,0,1,0,0V24a0,0,0,0,1,0,0H24a0,0,0,0,1,0,0V18A1.19,1.19,0,0,1,25.19,16.83Z"/><rect class="a" x="33.75" y="16.83" width="9.75" height="7.17"/><path class="a" d="M34.94,9.67h7.36a1.19,1.19,0,0,1,1.19,1.19v6a0,0,0,0,1,0,0H33.75a0,0,0,0,1,0,0v-6A1.19,1.19,0,0,1,34.94,9.67Z"/></svg>
